X: 2229
T: Avenging And Bright
R: waltz
M: 3/4
K: Dminor
|:A2|d2 defd|e2a2 ag|f2d2d2|c2A2A2|
d2 defd|e2a2 ag|e2d2d2|d4:|
|:c>B|f2 f>gaf|e2c2A2|BABdcB|A2F2F2|
f2 fgaf|e2c2A2|B>AG>FE>D|d4:|

